front-end/src/asset/icon-fire.svg

<svg class="outline" height="23" viewBox="0 0 17 23" width="17">
    <g fill-rule="evenodd" stroke="none" stroke-width="1">
        <path d="M4.76911754,10.1831748 C4.41132165,9.82739669 4.092791,9.44469727 3.81870135,9.06229761 C3.6556108,8.83475976 3.54514007,8.66057526 3.49157396,8.56697857 C3.30877368,8.24756947 2.85520342,8.22842252 2.64613448,8.53128931 C2.57611037,8.63272943 2.45882618,8.8157796 2.31004792,9.07022019 C2.06438788,9.49034802 1.81917655,9.96101739 1.59026263,10.472253 C0.931941326,11.9424881 0.535591363,13.4496631 0.535591363,14.917754 C0.535591363,19.1671715 3.30898034,22.539157 8.24046387,22.539157 C13.3041136,22.539157 16.8234872,18.9411525 16.773898,14.8858492 C16.7151173,12.2967786 15.8530946,10.7232243 13.5528183,7.99321428 C13.418845,7.834313 13.418845,7.834313 13.2857176,7.67626812 C11.1433572,5.13011261 10.4255078,3.71160937 10.5817386,1.41271305 C10.6154939,0.916011609 9.9817523,0.680511602 9.68295573,1.07872304 C6.8201305,4.8940606 5.9044521,7.10626484 6.29470778,11.3222826 C5.7623792,11.0509643 5.25155983,10.6628964 4.76911754,10.1831748 Z M4.06401306,10.8922782 C4.87128744,11.695 5.76441623,12.2869855 6.74054429,12.5738117 C7.08573726,12.6752435 7.42185519,12.3898437 7.37773078,12.0327728 C6.88514358,8.04657656 7.42930302,6.0176122 9.60787671,2.88497884 C9.81436504,4.70070846 10.7067533,6.16443561 12.5205443,8.3200925 C12.6544455,8.47905614 12.6544455,8.47905614 12.7880894,8.63756642 C14.9523166,11.206111 15.721999,12.6111052 15.7740643,14.903317 C15.8167775,18.3985618 12.744817,21.539157 8.24046387,21.539157 C3.90913648,21.539157 1.53559136,18.6533159 1.53559136,14.917754 C1.53559136,13.6092772 1.89750095,12.2330665 2.50294556,10.8809214 C2.68630763,10.4714172 2.88096278,10.0896858 3.07692308,9.7427066 C3.365059,10.1348718 3.69469308,10.525041 4.06401306,10.8922782 Z"></path>
        <path d="M12.1568552,18.6694941 C12.4288019,18.4547296 12.8200147,18.0771348 13.210951,17.5626187 C14.0992357,16.3935361 14.5127164,15.1011955 14.1513744,13.7573693 C14.0796693,13.4906991 13.805362,13.3326486 13.5386918,13.4043536 C13.2720216,13.4760587 13.1139711,13.750366 13.1856762,14.0170362 C13.453302,15.0123334 13.1336377,16.0114494 12.4147173,16.9576295 C12.2198961,17.214036 12.0104695,17.4455695 11.8015668,17.6472005 C11.6782967,17.7661796 11.585049,17.8468321 11.537087,17.8847091 C11.3203746,18.0558534 11.2834344,18.3702733 11.4545786,18.5869857 C11.6257228,18.8036981 11.9401428,18.8406384 12.1568552,18.6694941 Z"></path>
    </g>
</svg>

<svg class="solid" height="23" viewBox="0 0 17 23" width="17">
   <g>
      <path d="M13.553,7.993c-0.134-0.159-0.134-0.159-0.267-0.317c-2.142-2.546-2.86-3.965-2.704-6.264 c0.034-0.497-0.6-0.732-0.899-0.334C6.82,4.894,5.904,7.106,6.295,11.322c-0.532-0.271-1.043-0.659-1.526-1.139 c-0.358-0.356-0.676-0.738-0.95-1.121C3.656,8.835,3.545,8.661,3.492,8.567C3.309,8.248,2.855,8.228,2.646,8.531 C2.576,8.633,2.459,8.816,2.31,9.07c-0.246,0.42-0.491,0.891-0.72,1.402c-0.658,1.47-1.055,2.977-1.055,4.445 c0,4.249,2.773,7.621,7.705,7.621c5.064,0,8.583-3.598,8.533-7.653C16.715,12.297,15.853,10.723,13.553,7.993z M12.157,18.669 c-0.217,0.171-0.531,0.134-0.702-0.083c-0.171-0.217-0.134-0.531,0.083-0.702c0.048-0.038,0.141-0.119,0.264-0.237 c0.209-0.202,0.418-0.433,0.613-0.69c0.719-0.946,1.039-1.945,0.771-2.941c-0.072-0.267,0.086-0.541,0.353-0.613 s0.541,0.086,0.613,0.353c0.361,1.344-0.052,2.636-0.94,3.805C12.82,18.077,12.429,18.455,12.157,18.669z"></path>
   </g>
</svg>
